X:907
T:Caliope jig No 2
O:england
R:jig
M:6/8
L:1/8
K:G
F|GFG EBA|GFG EFG|FEF DdB|AFD D2f|
gfe edB|BAB d3|F/2G/2AF FAF|1 GEE E2:|2 GEE E3||
e^de Beg|bge gfe|d^cd Adf|agf gfe|
e^de Beg|bge gfe|B/2c/2dB AFA|GEE E3:|


